Yaru++/apps/16/root-terminal-app.svg

<svg height="16" width="16.000031" xmlns="http://www.w3.org/2000/svg"><path d="m3.9941406 2c-1.2582.0145-2.1788906-.0306044-2.9316406.3847656-.37637.20766-.67323062.5593869-.83789062.9980469-.16467.43867-.22460938.9595775-.22460938 1.6171875v7c0 .65761.05989938 1.178528.22460938 1.617188.16467.43866.46152062.790396.83789062.998046.75275.41532 1.6734506.370196 2.9316406.384766h.0039063 8.0039061.003906c1.25819-.0145 2.178891.030604 2.931641-.384766.37637-.20766.673221-.559386.837891-.998046.16413-.438671.224609-.959578.224609-1.617188v-7c0-.65761-.059899-1.1785175-.224609-1.6171875-.16466-.43866-.461521-.7903869-.837891-.9980469-.75275-.41534-1.673441-.3702456-2.931641-.3847656h-.003906-8.0039061zm2.9023438 1.0917969c1.74896-.004 3.4972636-.0010156 5.2460936.0214843.86117.14671 2.161038-.3415412 2.673828.6679688.25574 2.92399.069406 5.8819694.128906 8.818359-.087099.38019-.184818 1.143607-.730468 1.128907-3.53641.23538-7.0914659.108465-10.6347659.134765-.78646-.11198-1.9999068.290294-2.4042969-.691406-.1704999-2.4656-.0888437-4.9496369-.0898437-7.4355469.12175-.84105-.29598-2.0645087.6875-2.5117187 1.6892-.21162 3.4083969-.0775025 5.1230469-.1328125zm-2.7128906 1.5566406c-.0844.009-.1540582.0697937-.1738282.1523437l-.2285156.9277344h-.7851562c-.1098401.00044-.1987788.0893988-.1992188.1992188v.4003906c.00044.10984.0893987.1987787.1992188.1992188h.5839843l-.1191406.4726562h-.7617187c-.1098401.00044-.1987788.0893987-.1992188.1992188v.3984374c.00044.1098401.0893987.1987788.1992188.1992188h.5644531l-.2070313.8300781c-.0311.12579.0637994.2475269.1933594.2480469h.4179688c.0911998-.00018.1707293-.0620006.1933593-.1503906l.2324219-.9277344h.3496094l-.2050782.8300781c-.0311.12579.0637994.2475269.1933594.2480469h.4160156c.0912-.00018.1707294-.0620006.1933594-.1503906l.234375-.9277344h.7734375c.10984-.00044.1987788-.0893987.1992188-.1992188v-.3984374c-.00044-.1098401-.0893988-.1987788-.1992188-.1992188h-.5742187l.1152344-.4726562h.7578124c.10984-.0004401.1987788-.0893988.1992188-.1992188v-.4003906c-.00044-.10984-.0893987-.1987788-.1992188-.1992188h-.5566406l.2070313-.8320312c.0311-.1258-.0637994-.2475269-.1933594-.2480469h-.4179687c-.0912.00018-.1707294.0620006-.1933594.1503906l-.2363282.9296875h-.3476562l.2089844-.8320312c.0311-.1258-.0637994-.2475269-.1933594-.2480469h-.421875c-.007-.00032-.0130313-.00032-.0195312 0zm.2304687 1.8789063h.3476563l-.1171876.4726562h-.3496093zm1.5957031 2.4550781v1h3v-1z" fill="#808080"/></svg>

<?xml version="1.0" encoding="UTF-8" standalone="no"?>
<svg
   xmlns:osb="http://www.openswatchbook.org/uri/2009/osb"
   xmlns:dc="http://purl.org/dc/elements/1.1/"
   xmlns:cc="http://creativecommons.org/ns#"
   xmlns:rdf="http://www.w3.org/1999/02/22-rdf-syntax-ns#"
   xmlns:svg="http://www.w3.org/2000/svg"
   xmlns="http://www.w3.org/2000/svg"
   xmlns:sodipodi="http://sodipodi.sourceforge.net/DTD/sodipodi-0.dtd"
   xmlns:inkscape="http://www.inkscape.org/namespaces/inkscape"
   height="16"
   id="svg7384"
   version="1.1"
   width="16.000031"
   sodipodi:docname="root-terminal-app.svg"
   inkscape:version="0.92.4 (5da689c313, 2019-01-14)">
  <sodipodi:namedview
     pagecolor="#ffffff"
     bordercolor="#666666"
     borderopacity="1"
     objecttolerance="10"
     gridtolerance="10"
     guidetolerance="10"
     inkscape:pageopacity="0"
     inkscape:pageshadow="2"
     inkscape:window-width="1920"
     inkscape:window-height="1016"
     id="namedview21"
     showgrid="true"
     inkscape:zoom="64.538462"
     inkscape:cx="8.00003"
     inkscape:cy="7.49994"
     inkscape:window-x="0"
     inkscape:window-y="27"
     inkscape:window-maximized="1"
     inkscape:current-layer="g1833">
    <inkscape:grid
       type="xygrid"
       id="grid831" />
  </sodipodi:namedview>
  <metadata
     id="metadata20854">
    <rdf:RDF>
      <cc:Work
         rdf:about="">
        <dc:title />
        <dc:format>image/svg+xml</dc:format>
        <dc:type
           rdf:resource="http://purl.org/dc/dcmitype/StillImage" />
      </cc:Work>
    </rdf:RDF>
  </metadata>
  <defs
     id="defs7386">
    <linearGradient
       id="linearGradient5606"
       osb:paint="solid">
      <stop
         id="stop5608"
         offset="0"
         style="stop-color:#000000;stop-opacity:1;" />
    </linearGradient>
    <linearGradient
       id="linearGradient4526"
       osb:paint="solid">
      <stop
         id="stop4528"
         offset="0"
         style="stop-color:#ffffff;stop-opacity:1;" />
    </linearGradient>
    <linearGradient
       id="linearGradient3600-4"
       osb:paint="gradient">
      <stop
         id="stop3602-7"
         offset="0"
         style="stop-color:#f4f4f4;stop-opacity:1" />
      <stop
         id="stop3604-6"
         offset="1"
         style="stop-color:#dbdbdb;stop-opacity:1" />
    </linearGradient>
  </defs>
  <g
     id="layer9"
     label="status"
     style="display:inline"
     transform="translate(-853.00021,87.000061)" />
  <g
     id="layer2"
     style="display:inline"
     transform="translate(-612.00001,-279.99994)" />
  <g
     id="layer4"
     style="display:inline"
     transform="translate(-612.00001,-279.99994)" />
  <g
     id="g1812"
     style="display:inline"
     transform="translate(-612.00001,-279.99994)" />
  <g
     id="g6217"
     style="display:inline"
     transform="translate(-612.00001,-279.99994)" />
  <g
     id="layer3"
     style="display:inline"
     transform="translate(-612.00001,-279.99994)" />
  <g
     id="g1833"
     style="display:inline"
     transform="translate(-612.00001,-279.99994)">
    <path
       style="color:#000000;font-style:normal;font-variant:normal;font-weight:normal;font-stretch:normal;font-size:medium;line-height:normal;font-family:sans-serif;font-variant-ligatures:normal;font-variant-position:normal;font-variant-caps:normal;font-variant-numeric:normal;font-variant-alternates:normal;font-feature-settings:normal;text-indent:0;text-align:start;text-decoration:none;text-decoration-line:none;text-decoration-style:solid;text-decoration-color:#000000;letter-spacing:normal;word-spacing:normal;text-transform:none;writing-mode:lr-tb;direction:ltr;text-orientation:mixed;dominant-baseline:auto;baseline-shift:baseline;text-anchor:start;white-space:normal;shape-padding:0;clip-rule:nonzero;display:inline;overflow:visible;visibility:visible;opacity:1;isolation:auto;mix-blend-mode:normal;color-interpolation:sRGB;color-interpolation-filters:linearRGB;solid-color:#000000;solid-opacity:1;vector-effect:none;fill:#808080;fill-opacity:1;fill-rule:nonzero;stroke:none;stroke-width:1.00000012;stroke-linecap:butt;stroke-linejoin:miter;stroke-miterlimit:4;stroke-dasharray:none;stroke-dashoffset:0;stroke-opacity:1;marker:none;color-rendering:auto;image-rendering:auto;shape-rendering:auto;text-rendering:auto;enable-background:accumulate"
       d="M 3.9941406 2 C 2.7359406 2.0145 1.81525 1.9693956 1.0625 2.3847656 C 0.68613 2.5924256 0.38926938 2.9441525 0.22460938 3.3828125 C 0.059939375 3.8214825 0 4.34239 0 5 L 0 12 C 0 12.65761 0.059899375 13.178528 0.22460938 13.617188 C 0.38927938 14.055848 0.68613 14.407584 1.0625 14.615234 C 1.81525 15.030554 2.7359506 14.98543 3.9941406 15 L 3.9980469 15 L 12.001953 15 L 12.005859 15 C 13.264049 14.9855 14.18475 15.030604 14.9375 14.615234 C 15.31387 14.407574 15.610721 14.055848 15.775391 13.617188 C 15.939521 13.178517 16 12.65761 16 12 L 16 5 C 16 4.34239 15.940101 3.8214825 15.775391 3.3828125 C 15.610731 2.9441525 15.31387 2.5924256 14.9375 2.3847656 C 14.18475 1.9694256 13.264059 2.01452 12.005859 2 L 12.001953 2 L 3.9980469 2 L 3.9941406 2 z M 6.8964844 3.0917969 C 8.6454444 3.0877969 10.393748 3.0907813 12.142578 3.1132812 C 13.003748 3.2599912 14.303616 2.77174 14.816406 3.78125 C 15.072146 6.70524 14.885812 9.6632194 14.945312 12.599609 C 14.858213 12.979799 14.760494 13.743216 14.214844 13.728516 C 10.678434 13.963896 7.1233781 13.836981 3.5800781 13.863281 C 2.7936181 13.751301 1.5801713 14.153575 1.1757812 13.171875 C 1.0052813 10.706275 1.0869375 8.2222381 1.0859375 5.7363281 C 1.2076875 4.8952781 0.7899575 3.6718194 1.7734375 3.2246094 C 3.4626375 3.0129894 5.1818344 3.1471069 6.8964844 3.0917969 z M 4.1835938 4.6484375 C 4.0991938 4.6574375 4.0295356 4.7182312 4.0097656 4.8007812 L 3.78125 5.7285156 L 2.9960938 5.7285156 C 2.8862537 5.7289556 2.797315 5.8179144 2.796875 5.9277344 L 2.796875 6.328125 C 2.797315 6.437965 2.8862737 6.5269037 2.9960938 6.5273438 L 3.5800781 6.5273438 L 3.4609375 7 L 2.6992188 7 C 2.5893787 7.00044 2.50044 7.0893987 2.5 7.1992188 L 2.5 7.5976562 C 2.50044 7.7074963 2.5893987 7.796435 2.6992188 7.796875 L 3.2636719 7.796875 L 3.0566406 8.6269531 C 3.0255406 8.7527431 3.12044 8.87448 3.25 8.875 L 3.6679688 8.875 C 3.7591686 8.87482 3.8386981 8.8129994 3.8613281 8.7246094 L 4.09375 7.796875 L 4.4433594 7.796875 L 4.2382812 8.6269531 C 4.2071812 8.7527431 4.3020806 8.87448 4.4316406 8.875 L 4.8476562 8.875 C 4.9388562 8.87482 5.0183856 8.8129994 5.0410156 8.7246094 L 5.2753906 7.796875 L 6.0488281 7.796875 C 6.1586681 7.796435 6.2476069 7.7074763 6.2480469 7.5976562 L 6.2480469 7.1992188 C 6.2476069 7.0893787 6.1586481 7.00044 6.0488281 7 L 5.4746094 7 L 5.5898438 6.5273438 L 6.3476562 6.5273438 C 6.4574962 6.5269037 6.546435 6.437945 6.546875 6.328125 L 6.546875 5.9277344 C 6.546435 5.8178944 6.4574763 5.7289556 6.3476562 5.7285156 L 5.7910156 5.7285156 L 5.9980469 4.8964844 C 6.0291469 4.7706844 5.9342475 4.6489575 5.8046875 4.6484375 L 5.3867188 4.6484375 C 5.2955188 4.6486175 5.2159894 4.7104381 5.1933594 4.7988281 L 4.9570312 5.7285156 L 4.609375 5.7285156 L 4.8183594 4.8964844 C 4.8494594 4.7706844 4.75456 4.6489575 4.625 4.6484375 L 4.203125 4.6484375 C 4.196125 4.6481175 4.1900937 4.6481175 4.1835938 4.6484375 z M 4.4140625 6.5273438 L 4.7617188 6.5273438 L 4.6445312 7 L 4.2949219 7 L 4.4140625 6.5273438 z M 6.0097656 8.9824219 L 6.0097656 9.9824219 L 9.0097656 9.9824219 L 9.0097656 8.9824219 L 6.0097656 8.9824219 z "
       transform="translate(612.00001,279.99994)"
       id="path1817-75" />
    <g
       aria-label="#"
       style="font-style:normal;font-weight:normal;font-size:5.33333349px;line-height:1.25;font-family:sans-serif;letter-spacing:0px;word-spacing:0px;fill:#000000;fill-opacity:1;stroke:#000000;stroke-width:0.40000001;stroke-linecap:round;stroke-linejoin:round;stroke-miterlimit:4;stroke-dasharray:none;stroke-opacity:1"
       id="text849"
       transform="translate(0.60938,-0.27148)" />
  </g>
  <g
     id="layer1"
     style="display:inline"
     transform="translate(-612.00001,-279.99994)" />
</svg>
